!!!COM: Music21
!!!OTL: slide_Bill-The-Weavers
!!!OMV: slide_Bill-The-Weavers
**kern
*clefG2
*k[f#c#]
*D:
*M12/8
=1
4.gg
=||
8ff#L
8ee
8ddJ
4b
8dd
4a
8dd
4f#
8b
=
4a
8f#
8dL
8e
8f#J
4.e
4e
8gg
=
8ff#L
8ee
8ddJ
4b
8dd
4a
8dd
4f#
8b
=
4a
8f#
8eL
8f#
8eJ
4.d
4.ryy
!!linebreak:original
=||
8ff#L
8ee
8ddJ
4b
8dd
4a
8dd
4f#
8b
=
4a
8f#
8dL
8e
8f#J
4.e
4e
8gg
=
8ff#L
8ee
8ddJ
4b
8dd
4a
8dd
4f#
8b
=
4a
8f#
8eL
8f#
8eJ
4.d
4d
8gg
!!linebreak:original
=||
8ff#L
8ee
8ff#J
4aa
8aa
8bbL
8aa
8ff#J
4aa
8ff#
=
8ff#L
8ee
8ff#J
4aa
8ff#
4.gg
4ff#
8ee
=
8ff#L
8ee
8ff#J
4aa
8aa
8bbL
8aa
8ff#J
4aa
8ff#
=
4dd
8ff#
4aa
8ff#
4.dd
4dd
8gg
!!linebreak:original
=||
8ff#L
8ee
8ff#J
4aa
8aa
8bbL
8aa
8ff#J
4aa
8ff#
=
8ff#L
8ee
8ff#J
4aa
8ff#
4.gg
4ff#
8ee
=
8ff#L
8gg
8aaJ
8eeL
8ff#
8ggJ
8ff#L
8ee
8ddJ
4b
8dd
=
8aL
8b
8aJ
8gL
8f#
8eJ
4.d
4.ryy
=||
*-
